packages/foundations/assets/icons/functional/images/environment/cloud_12_filled.svg

<svg width="12" height="12" viewBox="0 0 12 12" fill="none" xmlns="http://www.w3.org/2000/svg">
<g clip-path="url(#clip0_2206_3108)">
<rect width="12" height="12" fill="white"/>
<path fill-rule="evenodd" clip-rule="evenodd" d="M4.90942 3.46322L4.79995 3.59999L4.67776 3.60307C3.78655 3.64808 3.00644 4.18271 2.63232 4.96817L2.61235 5.01239L2.568 5.03255C1.74699 5.4234 1.19995 6.25834 1.19995 7.19999C1.19995 8.52548 2.27447 9.59999 3.59995 9.59999L8.52304 9.59669C9.80611 9.5226 10.8 8.47306 10.8 7.19999L10.7958 7.05774C10.7653 6.53893 10.5687 6.05283 10.2436 5.66344L10.1922 5.60579C10.1974 5.50847 10.2 5.43987 10.2 5.39999C10.2 3.74314 8.85681 2.39999 7.19995 2.39999C6.35477 2.43979 5.43938 2.83547 4.90942 3.46322Z" fill="#282D37"/>
</g>
<defs>
<clipPath id="clip0_2206_3108">
<rect width="12" height="12" fill="white"/>
</clipPath>
</defs>
</svg>

<svg xmlns="http://www.w3.org/2000/svg" width="12" height="12" fill="none"><g clip-path="url(#a)"><path fill="#fff" d="M0 0h12v12H0z"/><path fill="#282D37" fill-rule="evenodd" d="M4.91 3.463 4.8 3.6l-.122.003a2.4 2.4 0 0 0-2.046 1.365l-.02.044-.044.02A2.401 2.401 0 0 0 3.6 9.6l4.923-.003A2.404 2.404 0 0 0 10.8 7.2l-.004-.142a2.4 2.4 0 0 0-.552-1.395l-.052-.057q.008-.146.008-.206a3 3 0 0 0-3-3c-.845.04-1.76.435-2.29 1.063" clip-rule="evenodd"/></g><defs><clipPath id="a"><path fill="#fff" d="M0 0h12v12H0z"/></clipPath></defs></svg>
